X: 135
T: 135. Gott der Vater wohn uns bei
N: Derived from chor135.krn
C: Johann Sebastian Bach
%%abc-version 2.0
%%abcx-abcm2ps-target-version 5.9.1 (29 Sep 2008)
%%abc-creator hum2abc beta
%%abcx-conversion-date 2019/03/11 17:28:18
%%abc-edited-by Craig Stuart Sapp
%%humdrum-veritas 704305703
%%humdrum-veritas-data 529291019
%%
%%barnumbers 0
L: 1/4
M: C
%%staves [1 2 3 4]
V: 1 clef=treble
V: 2 clef=treble
V: 3 clef=treble-8
V: 4 clef=bass
K: D
[V:1] AABc | 
[V:2] FFGG | 
[V:3] ddde | 
[V:4] D,D,G,/F,/E, | 
[V:1] dd!fermata!cB | 
[V:2] AA/^G/!fermata!A=G | 
[V:3] f/e/d!fermata!ee | 
[V:4] D,/C,/B,,!fermata!A,,E, | 
[V:1] dAFG | 
[V:2] FEE/DC/ | 
[V:3] de/A/AG | 
[V:4] B,,C,D,E, | 
[V:1] FE!fermata!D2 :|]|:  
[V:2] D3/C/!fermata!A,2 :|]|:  
[V:3] A3/A//G//!fermata!F2 :|]|:  
[V:4] F,/G,/A,!fermata!D,2 :|]|:  
[V:1] DEF3/E/ | 
[V:2] A,A,/E/- E/DC/ | 
[V:3] FAAA/G/ | 
[V:4] D,C,D,A,, | 
[V:1] DE!fermata!Fd | 
[V:2] B,B,!fermata!CD/E/ | 
[V:3] FB!fermata!^AB- | 
[V:4] B,,/A,,/G,,!fermata!F,,B,, | 
[V:1] cde3/d/ | 
[V:2] FF/B/- B/A//^G//A- | 
[V:3] B/=A/fec/d/ | 
[V:4] F,D,C,F, | 
[V:1] cB!fermata!AA | 
[V:2] A^G!fermata!EE | 
[V:3] e-e/d/!fermata!cc | 
[V:4] E,E,,!fermata!A,,A,/=G,/ | 
[V:1] AdcA | 
[V:2] FFED/E/ | 
[V:3] dAA/G/F | 
[V:4] F,/E,/D,A,,D, | 
[V:1] B/A/G!fermata!FE- | 
[V:2] F3/E/- E/!fermata!^D/E | 
[V:3] BB!fermata!BB/A/ | 
[V:4] ^D,E,!fermata!B,,C, | 
[V:1] FGA3/G/ | 
[V:2] E/=D/- D/C/- C/D/- D/E/- | 
[V:3] AGF/A/B | 
[V:4] =D,E,F,G, | 
[V:1] FE!fermata!D2 :|]  
[V:2] E/DC/!fermata!A,2 :|]  
[V:3] A-A/G/!fermata!F2 :|]  
[V:4] A,A,,!fermata!D,2 :|]  
[V:1] DE-F3/E/ | 
[V:2] A,A,/E/- E/D/- D/C/ | 
[V:3] AAAA | 
[V:4] F,C,D,A,/G,/ | 
[V:1] DE!fermata!FA | 
[V:2] DB,/E/!fermata!DD- | 
[V:3] A/F/ G/A/!fermata!AF/G/ | 
[V:4] F,/D,C,/!fermata!D,D,/E,/ | 
[V:1] AAFG | 
[V:2] D/E/ F/E/D-D/E/- | 
[V:3] A/B/cd/c/B | 
[V:4] F,/G,/A,B,/A,/G, | 
[V:1] FE!fermata!D2 |]  
[V:2] E/DC/!fermata!A,2 |]  
[V:3] A-A/G/!fermata!F2 |]  
[V:4] A,A,,!fermata!D,2 |]  



